images/mail-icon.svg

<svg width="96" height="96" xmlns="http://www.w3.org/2000/svg">

 <g>
  <title>background</title>
  <rect fill="none" id="canvas_background" height="402" width="582" y="-1" x="-1"/>
 </g>
 <g>
  <title>Layer 1</title>
  <path fill="#006699" id="svg_1" d="m80,12l-64,0c-6.627,0 -12,5.372999 -12,12l0,48c0,6.626999 5.373,12 12,12l64,0c6.626999,0 12,-5.373001 12,-12l0,-48c0,-6.627001 -5.373001,-12 -12,-12zm0,8c0.459,0 0.892998,0.093 1.303001,0.235001l-33.303001,26.641998l-33.302999,-26.641998c0.410999,-0.142 0.844,-0.235001 1.302999,-0.235001l64,0zm0,56l-64,0c-2.21,0 -4,-1.790001 -4,-4l0,-43.677l33.500999,26.800001c0.73,0.584999 1.615002,0.876999 2.499001,0.876999s1.769001,-0.292 2.499001,-0.876999l33.500999,-26.800001l0,43.677c0,2.209999 -1.790001,4 -4,4z"/>
 </g>
</svg>

<?xml version="1.0" ?><!DOCTYPE svg  PUBLIC '-//W3C//DTD SVG 1.1//EN'  'http://www.w3.org/Graphics/SVG/1.1/DTD/svg11.dtd'><svg enable-background="new 0 0 96 96" height="96px" id="mail" version="1.1" viewBox="0 0 96 96" width="96px" xml:space="preserve" xmlns="http://www.w3.org/2000/svg" xmlns:xlink="http://www.w3.org/1999/xlink"><path d="M80,12H16C9.373,12,4,17.373,4,24v48c0,6.627,5.373,12,12,12h64c6.627,0,12-5.373,12-12V24C92,17.373,86.627,12,80,12z   M80,20c0.459,0,0.893,0.093,1.303,0.235L48,46.877L14.697,20.235C15.108,20.093,15.541,20,16,20H80z M80,76H16c-2.21,0-4-1.79-4-4  V28.323l33.501,26.8C46.231,55.708,47.116,56,48,56s1.769-0.292,2.499-0.877L84,28.323V72C84,74.21,82.21,76,80,76z"/></svg>
